src/24x24/places/folder-gruvbox-original-yellow-important.svg

<?xml version="1.0" encoding="UTF-8"?>
<svg width="24" height="24" version="1" xmlns="http://www.w3.org/2000/svg">
 <rect x="2" y="9.5" width="20" height="12" rx="1" ry="1" opacity=".2"/>
 <path d="m2 17c0 0.554 0.446 1 1 1h18c0.554 0 1-0.446 1-1v-11c0-0.554-0.446-1-1-1h-9c-1.5 0-2-2-3.5-2h-5.5c-0.554 0-1 0.446-1 1" fill="#b57614"/>
 <rect x="2" y="8.5" width="20" height="12" rx="1" ry="1" opacity=".2"/>
 <rect x="4" y="7" width="16" height="8" rx="1" ry="1" fill="#f3deaa"/>
 <rect x="2" y="9" width="20" height="12" rx="1" ry="1" fill="#fabd2f"/>
 <path d="m3 3c-0.554 0-1 0.446-1 1v0.5c0-0.554 0.446-1 1-1h5.5c1.5 0 2 2 3.5 2h9c0.554 0 1 0.446 1 1v-0.5c0-0.554-0.446-1-1-1h-9c-1.5 0-2-2-3.5-2z" fill="#f3deaa" opacity=".1"/>
 <path d="m12.5 11c-1.933 0-3.5 1.567-3.5 3.5s1.567 3.5 3.5 3.5 3.5-1.567 3.5-3.5-1.567-3.5-3.5-3.5zm-0.5 1h1v3h-1zm0 4h1v1h-1z" fill="#473c29"/>
</svg>

<svg xmlns="http://www.w3.org/2000/svg" width="24" height="24" version="1">
 <rect style="opacity:0.2" width="20" height="12" x="2" y="9.5" rx="1" ry="1"/>
 <path style="fill:#b57614" d="M 2,17 C 2,17.554 2.446,18 3,18 H 21 C 21.554,18 22,17.554 22,17 V 6 C 22,5.446 21.554,5 21,5 H 12 C 10.5,5 10,3 8.5,3 H 3 C 2.446,3 2,3.446 2,4"/>
 <rect style="opacity:0.2" width="20" height="12" x="2" y="8.5" rx="1" ry="1"/>
 <rect style="fill:#f3deaa" width="16" height="8" x="4" y="7" rx="1" ry="1"/>
 <rect style="fill:#fabd2f" width="20" height="12" x="2" y="9" rx="1" ry="1"/>
 <path style="opacity:0.1;fill:#f3deaa" d="M 3,3 C 2.446,3 2,3.446 2,4 V 4.5 C 2,3.946 2.446,3.5 3,3.5 H 8.5 C 10,3.5 10.5,5.5 12,5.5 H 21 C 21.554,5.5 22,5.946 22,6.5 V 6 C 22,5.446 21.554,5 21,5 H 12 C 10.5,5 10,3 8.5,3 Z"/>
 <path style="fill:#473c29" d="M 12.5,11 C 10.567,11 9,12.567 9,14.5 9,16.433 10.567,18 12.5,18 14.433,18 16,16.433 16,14.5 16,12.567 14.433,11 12.5,11 Z M 12,12 H 13 V 15 H 12 Z M 12,16 H 13 V 17 H 12 Z"/>
</svg>
